X: 94
T:Chouteira de Lerez
M:3/4
L:1/8
Q:250
C:Trad
R:Chouteira
K:CMin
G2 |: {C}G4 C"F."G | C2 G2{C}G2| {C}"~"G2 F4- | F3"F."c F2 | B2A2G2 | F2
 =E2F2| "~"A2 G4- | G4 {C}G2 :|
|: c4 B2 | G2 c>"F."g c2 | B4 "~"G2 | E3 "F."c E2 | A4 G2 | F2G2E2  | "~
" D2 C4- | C4 G2 :| 
|: {C}G2{C}G2 "~" E2 | C4 G2 | {C}G2 A2 G2| F4 B2| =A2B2G2 | E2 G2{C}G2
| F2E2D2 |1 C4 G2 :|2 
K:C
C2 CDEF | GF EFGE | FD B,CDE | FE DEFD |ED CDEF |
GF EFGE |FD B,CDE |FE DCB,D |: C2 GFED | EC GFED |EC GFED | "~"E2 CE
CE| D2 FEDC |DB, FEDC | DB, FEDC "~"D2 B,DB,D :| C2 GFED | EC GFED | C6-
 | C4 ||

